public/images/brain-yellow.svg

<svg fill="none" height="18" viewBox="0 0 18 18" width="18" xmlns="http://www.w3.org/2000/svg"><path d="m5.60156 6.29297.03516-.10547c0 .03516-.03516.07031-.03516.10547zm12.30464 3.375c-.7382-1.65235-1.7226-5.30859-2.5664-6.53906-1.371-1.96875-3.621-3.12891-5.97652-3.12891h-2.60156c-3.72656 0-6.7500012 3.02344-6.7500012 6.75 0 1.93359.8085932 3.7617 2.2500012 5.0273v6.2227h8.99998l-.0351-2.25h2.25c1.2656 0 2.25-.9844 2.25-2.2148v-2.2852h1.0898c.3867 0 .7383-.1758.9141-.4922.2812-.3164.3164-.7383.1757-1.08983zm-6.082-2.35547h-1.793c.0704.21094.1055.38672.1055.5625 0 .94922-.77342 1.6875-1.68748 1.6875-.21094 0-.38672-.03516-.5625-.10547v1.79297h-2.25v-1.79297c-.21094.07031-.38672.10547-.5625.10547-.94922 0-1.6875-.73828-1.6875-1.6875 0-.03516 0-.03516 0-.07031-.77344-.28125-1.26563-1.08985-1.125-1.89844.14062-.80859.84375-1.40625 1.6875-1.40625 0-.91406.73828-1.6875 1.6875-1.6875.28125 0 .5625.10547.80859.24609.31641-.49218.84375-.80859 1.44141-.80859.5625 0 1.08984.31641 1.40625.80859.42187-.24609.94923-.28125 1.40623-.10547.4922.14063.8438.52735 1.0196.98438h.1054c.9141 0 1.6875.77344 1.6875 1.6875 0 .94922-.7734 1.6875-1.6875 1.6875z" fill="#fbc825"/></svg>

<svg width="18" height="18" viewBox="0 0 18 18" fill="none" xmlns="http://www.w3.org/2000/svg">
<path d="M5.60156 6.29297L5.63672 6.1875C5.63672 6.22266 5.60156 6.25781 5.60156 6.29297ZM17.9062 9.66797C17.168 8.01562 16.1836 4.35938 15.3398 3.12891C13.9688 1.16016 11.7188 0 9.36328 0H6.76172C3.03516 0 0.0117188 3.02344 0.0117188 6.75C0.0117188 8.68359 0.820312 10.5117 2.26172 11.7773V18H11.2617L11.2266 15.75H13.4766C14.7422 15.75 15.7266 14.7656 15.7266 13.5352V11.25H16.8164C17.2031 11.25 17.5547 11.0742 17.7305 10.7578C18.0117 10.4414 18.0469 10.0195 17.9062 9.66797ZM11.8242 7.3125H10.0312C10.1016 7.52344 10.1367 7.69922 10.1367 7.875C10.1367 8.82422 9.36328 9.5625 8.44922 9.5625C8.23828 9.5625 8.0625 9.52734 7.88672 9.45703V11.25H5.63672V9.45703C5.42578 9.52734 5.25 9.5625 5.07422 9.5625C4.125 9.5625 3.38672 8.82422 3.38672 7.875C3.38672 7.83984 3.38672 7.83984 3.38672 7.80469C2.61328 7.52344 2.12109 6.71484 2.26172 5.90625C2.40234 5.09766 3.10547 4.5 3.94922 4.5C3.94922 3.58594 4.6875 2.8125 5.63672 2.8125C5.91797 2.8125 6.19922 2.91797 6.44531 3.05859C6.76172 2.56641 7.28906 2.25 7.88672 2.25C8.44922 2.25 8.97656 2.56641 9.29297 3.05859C9.71484 2.8125 10.2422 2.77734 10.6992 2.95312C11.1914 3.09375 11.543 3.48047 11.7188 3.9375H11.8242C12.7383 3.9375 13.5117 4.71094 13.5117 5.625C13.5117 6.57422 12.7383 7.3125 11.8242 7.3125Z" fill="#FBC825"/>
</svg>
